X: 2
T: North Highland Reel
O: Patrick McDonald Collection
R: reel
B: Version from the Concord Slow Scottish Jam session binder _.
N: "taught by Laura Risk - Boston Harbor 2004"
Z: 2015 John Chambers <jc:trillian.mit.edu>
M: C
L: 1/8
K: Amix
|:\
fA A/A/A e2de | fA A/A/A dBBg | fA A/A/A e2de | fedB BAAg :|
f2af e2de | fdg2 dBBg | f2af e2de | fedB BAAg |
f2af e2de | fdg2 dBBg | fgaf g2af | g/f/e dB BAAg |]

%%sep 1 1 500

